X:819
T:The trip to Sligo
T:The lark in the morning
R:Jig
O:Ireland
B:O'Neill's 1019
B:O'Neill's 240 ? O'Neill's DMI?
S:My arrangement from various sources
Z:Transcription, arrangement, chords:Mike Long
M:6/8
L:1/8
K:G
D|\
"Em"E2e BGE|"D"D2d AFD|"Em"E2e BGE|"G"GFE e2f|\
"Em"gfe dcB|"D"ABG FED|"Em"EFG "C"ABc|"D"BGF "Em"E2:|
|:B|\
"Em"eBe gfe|"D"dAd fed|"Em"eBe gfe|"D"(f/g/a)f "Em"gfe|\
"D"(f/g/a)f "Em"gfe|"D"dcB AFD|"Em"EFG "C"ABc|"D"BGF "Em"E2:|
